X: 10
T: Missa Caput / Credo
N: Derived from Ock1003c-Missa_Caput-Credo.krn
C: Johannes Ockeghem
%%abc-version 2.0
%%abcx-abcm2ps-target-version 5.9.1 (29 Sep 2008)
%%abc-creator hum2abc beta
%%abcx-conversion-date 2019/02/17 07:26:13
%%abc-edited-by Jesse Rodin
%%abc-edited-by Will Watson 08/03/2012
%%abcx-initial-encoding-date 2012/03/08/
%%humdrum-veritas 3407125795
%%humdrum-veritas-data 925008020
%%linebreak <none>
%%barnumbers 0
L: 1/4
M: 3/1
Q: 1/2=120
%%staves [1 2 3 4]
V: 1 clef=treble
V: 2 clef=treble-8
V: 3 clef=treble-8
V: 4 clef=bass
K: C
[V:1] A12 | 
[V:2] A12 | 
[V:3] z12 | 
[V:4] z12 | 
[V:1] G4F6E2 | 
[V:2] c4d6cd | 
[V:3] z12 | 
[V:4] z12 | 
[V:1] G2FGA2F2E4 | 
[V:2] e4f2d4c2 | 
[V:3] z12 | 
[V:4] z12 | 
[V:1] D2F2E2D4C2 | 
[V:2] d4c2B4A2 | 
[V:3] z12 | 
[V:4] z12 | 
[V:1] B,4A,4z2A2- | 
[V:2] z2d2c2e4f2 | 
[V:3] z12 | 
[V:4] z12 | 
[V:1] A4G2c2BAA2- | 
[V:2] d2f2e4d2c2 | 
[V:3] z12 | 
[V:4] z12 | 
[V:1] A2G2A3GE3D | 
[V:2] B4A2c3BG2- | 
[V:3] z12 | 
[V:4] z12 | 
[V:1] E2F2E2A3GE2 | 
[V:2] G2A2c4F2G2 | 
[V:3] z12 | 
[V:4] z12 | 
[V:1] F2G2C4D4 | 
[V:2] A3GA2c4B2 | 
[V:3] z12 | 
[V:4] z12 | 
[V:1] C12 | 
[V:2] c12 | 
[V:3] z12 | 
[V:4] z12 | 
[V:1] z12 | 
[V:2] z12 | 
[V:3] z12 | 
[V:4] z12 | 
[V:1] F8E4 | 
[V:2] d4A2d4c2 | 
[V:3] z12 | 
[V:4] z12 | 
[V:1] D2F2G2A4F2 | 
[V:2] d4e2f2d4 | 
[V:3] z12 | 
[V:4] z12 | 
[V:1] E2D2F2E4A2- | 
[V:2] c2d4c2A2c2 | 
[V:3] z12 | 
[V:4] z12 | 
[V:1] AG/A/G2E4C2D2 | 
[V:2] d2e4c2A2B2 | 
[V:3] z12 | 
[V:4] z12 | 
[V:1] F2E2A3G/A/G2c2- | 
[V:2] d2c4f2e4 | 
[V:3] z12 | 
[V:4] z12 | 
[V:1] cB/c/B2A2d4c2 | 
[V:2] c2d2f4e4 | 
[V:3] z12 | 
[V:4] z12 | 
[V:1] B2A4G2F2E2- | 
[V:2] d2c2B4A4 | 
[V:3] z12 | 
[V:4] z12 | 
[V:1] E2G2A2D2E4 | 
[V:2] c2B2A2d4^c2 | 
[V:3] z12 | 
[V:4] z12 | 
[V:1] D8z4 | 
[V:2] d6B4G2 | 
[V:3] D8G2A2 | 
[V:4] z12 | 
[V:1] D4G2A2B4- | 
[V:2] G3FD4z4 | 
[V:3] B8d4- | 
[V:4] B,,12- | 
[V:1] B2G4A2G3F | 
[V:2] z4d8- | 
[V:3] d4B8 | 
[V:4] B,,12 | 
[V:1] F3GA4D4 | 
[V:2] d8A2B2 | 
[V:3] A4D2F4G2 | 
[V:4] D,12- | 
[V:1] z4F6EF | 
[V:2] A2d4B2d4 | 
[V:3] A4B6AB | 
[V:4] D,12 | 
[V:1] G2FGA2G4E2 | 
[V:2] e8c4- | 
[V:3] c6B2G4 | 
[V:4] C,12- | 
[V:1] E2C2C4z4 | 
[V:2] c4e8 | 
[V:3] A2G4E2E4 | 
[V:4] C,12 | 
[V:1] A4A4A4 | 
[V:2] d6c2A3B | 
[V:3] z4F8 | 
[V:4] D,12 | 
[V:1] G4F6EF | 
[V:2] c4d2B3AB2 | 
[V:3] E4D8 | 
[V:4] z4z4B,,4 | 
[V:1] G4A2G4E2 | 
[V:2] c3de3fg4- | 
[V:3] C8c4 | 
[V:4] E,12 | 
[V:1] D6G2F2A2- | 
[V:2] g2f2d4f4 | 
[V:3] B4d8 | 
[V:4] G,8D,4 | 
[V:1] AGE2z2G2F2D2- | 
[V:2] e2c2d8 | 
[V:3] c4B6A2 | 
[V:4] E,4B,,4D,4 | 
[V:1] D2F4G2A2F2 | 
[V:2] z12 | 
[V:3] A6G2F4 | 
[V:4] D,12 | 
[V:1] G3FEDD4^C2 | 
[V:2] z12 | 
[V:3] E2C4D2E4 | 
[V:4] C,4A,,8 | 
[V:1] D6CDB,3A, | 
[V:2] A4F4D2G2 | 
[V:3] D8z4 | 
[V:4] z4z4B,,4 | 
[V:1] A,12 | 
[V:2] F2D4d3cd2 | 
[V:3] F4G2A4D2- | 
[V:4] D,12- | 
[V:1] z12 | 
[V:2] A2d4f2e4 | 
[V:3] D2A4B2c4 | 
[V:4] D,8C,4 | 
[V:1] F6G2A4 | 
[V:2] d12 | 
[V:3] A12 | 
[V:4] D,12- | 
[V:1] A4B6G2 | 
[V:2] z4z4B4 | 
[V:3] d12 | 
[V:4] D,8B,,4 | 
[V:1] G4c6B2 | 
[V:2] c4A4z4 | 
[V:3] e12 | 
[V:4] z4z4E,4 | 
[V:1] B4B4A4 | 
[V:2] G8F4- | 
[V:3] d12 | 
[V:4] G,8D,4- | 
[V:1] z4G6F2 | 
[V:2] F4G4D4 | 
[V:3] B12 | 
[V:4] D,4E,4B,,4 | 
[V:1] F8D2F2 | 
[V:2] z4d8 | 
[V:3] A12 | 
[V:4] D,8D,4 | 
[V:1] G2A4F2E4 | 
[V:2] e2c3Ad2e2c2 | 
[V:3] z12 | 
[V:4] C,4A,,8 | 
[V:1] D12 | 
[V:2] d2A4_B2G4 | 
[V:3] D8z4 | 
[V:4] z4z4B,,4 | 
[V:1] z12 | 
[V:2] F12- | 
[V:3] A6d3cA2- | 
[V:4] D,12- | 
[V:1] z12 | 
[V:2] F4E8 | 
[V:3] A2B2c2A2G4 | 
[V:4] D,4C,8 | 
[V:1] z12 | 
[V:2] F3GA2D4F2- | 
[V:3] F6G2A4 | 
[V:4] D,12- | 
[V:1] z4D8 | 
[V:2] FGA4B2G3F | 
[V:3] D3EF2G3FD2 | 
[V:4] D,4B,,8 | 
[V:1] E4z2A4F2- | 
[V:2] A4E2F2E2z2 | 
[V:3] z2A4F2G2A2 | 
[V:4] A,,12- | 
[V:1] FGA2E2F2E2A2- | 
[V:2] A4B2c3de2- | 
[V:3] E2F2E2A4c2- | 
[V:4] A,,12 | 
[V:1] ABc4B2A4 | 
[V:2] e2A4G2F4 | 
[V:3] cde2A2d4c2 | 
[V:4] z12 | 
[V:1] G3AB2A4^G2 | 
[V:2] G2E4e4d2 | 
[V:3] B2e4c2B4 | 
[V:4] z12 | 
[V:1] A12 | 
[V:2] e4c4d4- | 
[V:3] A12 | 
[V:4] z4z4D,4 | 
[V:1] z4z4A4 | 
[V:2] d2c2A4d4 | 
[V:3] z12 | 
[V:4] D,12 | 
[V:1] G4F2A4GF | 
[V:2] z4c8 | 
[V:3] z12 | 
[V:4] E,4F,8 | 
[V:1] E4D6C2 | 
[V:2] B6G2A4 | 
[V:3] G8F4 | 
[V:4] G,8D,4 | 
[V:1] C4z4D4 | 
[V:2] G2c2d2B4A2 | 
[V:3] E4D8 | 
[V:4] E,4F,8 | 
[V:1] E2F2G4A4 | 
[V:2] c8z2A2 | 
[V:3] C8F4 | 
[V:4] G,8D,4 | 
[V:1] G2E2D2G4^F2 | 
[V:2] B2G4d4d2 | 
[V:3] G2B4G2A4 | 
[V:4] G,8D,4 | 
[V:1] G4z4G4 | 
[V:2] B4c2d2e4 | 
[V:3] G2FGA2G2E4 | 
[V:4] E,4C,8 | 
[V:1] F3GA3Bc4- | 
[V:2] z4z4e4- | 
[V:3] D4F4G4 | 
[V:4] D,8E,4 | 
[V:1] c2A2B2G4FG | 
[V:2] e4d8 | 
[V:3] A4z2B4AB | 
[V:4] C,4B,,8 | 
[V:1] A6GFE2F2 | 
[V:2] e4z4A3B | 
[V:3] c6A2c3d | 
[V:4] A,,12- | 
[V:1] E2C2z2A,2C3D | 
[V:2] c4d2c4A2- | 
[V:3] e4f4e4 | 
[V:4] A,,12 | 
[V:1] E2F2G2A3F2D | 
[V:2] A2F2E2F2D4 | 
[V:3] A4B2A4d2 | 
[V:4] z12 | 
[V:1] EF2GE2D2F3E | 
[V:2] A2_BGA2D2d3=B | 
[V:3] cd2ec2d4A2- | 
[V:4] z12 | 
[V:1] E2F2D2D4^C2 | 
[V:2] c2d2A2B2G4 | 
[V:3] A2D2F2G2E4 | 
[V:4] z12 | 
[V:1] D12 | 
[V:2] A4B4A4 | 
[V:3] D8F3G | 
[V:4] z4z4D,4 | 
[V:1] z12 | 
[V:2] d4z4z4 | 
[V:3] A4B2d3cA2 | 
[V:4] D,12 | 
[V:1] z12 | 
[V:2] z4z4A4 | 
[V:3] G2c4B2A4 | 
[V:4] E,4F,8 | 
[V:1] z12 | 
[V:2] B6d3cA2 | 
[V:3] G8z4 | 
[V:4] G,8D,4 | 
[V:1] z4z4A4 | 
[V:2] G2c4B2A4 | 
[V:3] z12 | 
[V:4] E,4F,8 | 
[V:1] B6d4A2- | 
[V:2] G4g4f3g | 
[V:3] z12 | 
[V:4] G,8D,4- | 
[V:1] A2d6B2G2 | 
[V:2] a4g3fd2g2- | 
[V:3] z12 | 
[V:4] D,4G,8 | 
[V:1] A4G6A2- | 
[V:2] g2f2g4e4 | 
[V:3] z4z4E4 | 
[V:4] D,4E,4C,4 | 
[V:1] A4F3EE4 | 
[V:2] f2d4B2c4 | 
[V:3] D2F4EDC4 | 
[V:4] D,8E,4 | 
[V:1] D4C6E2- | 
[V:2] B2G2z2E2F2E2 | 
[V:3] G4A8 | 
[V:4] B,,4A,,8 | 
[V:1] E2D2D2E2D2G2- | 
[V:2] G4D2G2A2B2- | 
[V:3] B6c2d4 | 
[V:4] G,,12- | 
[V:1] G4A2B2G3F | 
[V:2] B2G2z2D2E2G2 | 
[V:3] d2e4dcB4 | 
[V:4] G,,12 | 
[V:1] A12- | 
[V:2] D4z2A2c3d | 
[V:3] A12 | 
[V:4] z4z4A,,4 | 
[V:1] A4G8 | 
[V:2] e12 | 
[V:3] z4z4G4 | 
[V:4] C,12 | 
[V:1] E4D2F4G2 | 
[V:2] c4B2c2d4 | 
[V:3] A4B6A2 | 
[V:4] C,4D,8 | 
[V:1] E3FG2A3Bc2- | 
[V:2] G4E8 | 
[V:3] c8A4- | 
[V:4] C,12 | 
[V:1] c2A2BAGFE3D | 
[V:2] F4C4z4 | 
[V:3] A4G8 | 
[V:4] z12 | 
[V:1] F3GA2A4F2 | 
[V:2] A12 | 
[V:3] F12 | 
[V:4] D,12 | 
[V:1] E8A4 | 
[V:2] c4e8 | 
[V:3] z4c8 | 
[V:4] C,12 | 
[V:1] G4F6E2 | 
[V:2] d12 | 
[V:3] B4A8 | 
[V:4] D,12 | 
[V:1] G6F2E3D | 
[V:2] B6c4B2 | 
[V:3] G12 | 
[V:4] E,12 | 
[V:1] D8G4 | 
[V:2] B8d4- | 
[V:3] z4F4G4- | 
[V:4] B,,8G,,4- | 
[V:1] B4A8 | 
[V:2] d4c8 | 
[V:3] G4E8 | 
[V:4] G,,4A,,8 | 
[V:1] G4c8 | 
[V:2] d4c4A4 | 
[V:3] D4E4F4 | 
[V:4] B,,4A,,8 | 
[V:1] B3cd4G3F | 
[V:2] z4B3cd4 | 
[V:3] G6A2B3c | 
[V:4] G,,12 | 
[V:1] D2F2G2A2D4- | 
[V:2] G3FD2E2D2G2- | 
[V:3] d4B2c2d2D2- | 
[V:4] B,,6A,,2B,,4 | 
[V:1] D2B,2A,2D4C2 | 
[V:2] GAB2cBAG^F3E | 
[V:3] D2G2F3GA4 | 
[V:4] G,,4A,,8 | 
[V:1] D12- | 
[V:2] G3AB6G2 | 
[V:3] D12- | 
[V:4] G,,12 | 
[V:1] D12- | 
[V:2] B3cB8 | 
[V:3] D12- | 
[V:4] z4D,8 | 
[V:1] D12 ||  
[V:2] A12 ||  
[V:3] D12 ||  
[V:4] D,12 ||  
[V:1] [M:2/1]D8 | 
[V:2] [M:2/1]G8 | 
[V:3] [M:2/1]z8 | 
[V:4] [M:2/1]z8 | 
[V:1] D8 | 
[V:2] _B8 | 
[V:3] z8 | 
[V:4] z8 | 
[V:1] C4D4 | 
[V:2] A4F4 | 
[V:3] z8 | 
[V:4] z8 | 
[V:1] E8 | 
[V:2] E4A4- | 
[V:3] z8 | 
[V:4] z8 | 
[V:1] E4E4- | 
[V:2] A4G4 | 
[V:3] z8 | 
[V:4] z8 | 
[V:1] E4E4 | 
[V:2] A4c4 | 
[V:3] z8 | 
[V:4] z8 | 
[V:1] F4A4- | 
[V:2] d4f4- | 
[V:3] z8 | 
[V:4] z8 | 
[V:1] A4G4 | 
[V:2] f4e4 | 
[V:3] z8 | 
[V:4] z8 | 
[V:1] F8 | 
[V:2] d8 | 
[V:3] z8 | 
[V:4] z8 | 
[V:1] E8 | 
[V:2] c6d2 | 
[V:3] z8 | 
[V:4] z8 | 
[V:1] z4B4 | 
[V:2] e8 | 
[V:3] z8 | 
[V:4] z8 | 
[V:1] B4B4 | 
[V:2] d8 | 
[V:3] z8 | 
[V:4] z8 | 
[V:1] c4B4- | 
[V:2] z4d4- | 
[V:3] z8 | 
[V:4] z8 | 
[V:1] B2A2A4- | 
[V:2] d4c4 | 
[V:3] z8 | 
[V:4] z8 | 
[V:1] A2F2G4 | 
[V:2] B8 | 
[V:3] z8 | 
[V:4] z8 | 
[V:1] A4D4 | 
[V:2] A4B4 | 
[V:3] z8 | 
[V:4] z8 | 
[V:1] E2F4E2 | 
[V:2] A4d2c2 | 
[V:3] z8 | 
[V:4] z8 | 
[V:1] F2G2E4 | 
[V:2] d2B2c4 | 
[V:3] z8 | 
[V:4] z8 | 
[V:1] C4z4 | 
[V:2] z4e4- | 
[V:3] z8 | 
[V:4] z8 | 
[V:1] G8- | 
[V:2] e2d2B4 | 
[V:3] z8 | 
[V:4] z8 | 
[V:1] G4F4 | 
[V:2] c4d4- | 
[V:3] z8 | 
[V:4] z8 | 
[V:1] E8 | 
[V:2] d4^c4 | 
[V:3] z8 | 
[V:4] z8 | 
[V:1] D8 | 
[V:2] d8- | 
[V:3] z8 | 
[V:4] z8 | 
[V:1] z8 | 
[V:2] d8 | 
[V:3] z8 | 
[V:4] z8 | 
[V:1] E8 | 
[V:2] z8 | 
[V:3] z8 | 
[V:4] z8 | 
[V:1] E4A4- | 
[V:2] A8 | 
[V:3] z8 | 
[V:4] z8 | 
[V:1] A4A4 | 
[V:2] A4c4- | 
[V:3] z8 | 
[V:4] z8 | 
[V:1] G4F4 | 
[V:2] c4d4 | 
[V:3] z8 | 
[V:4] z8 | 
[V:1] E8 | 
[V:2] c2c4A2 | 
[V:3] z8 | 
[V:4] z8 | 
[V:1] D4C4 | 
[V:2] B4A4 | 
[V:3] z8 | 
[V:4] z8 | 
[V:1] B,8 | 
[V:2] z4d4 | 
[V:3] z8 | 
[V:4] z8 | 
[V:1] A,8 | 
[V:2] c2d2e4 | 
[V:3] z8 | 
[V:4] z8 | 
[V:1] C4B,4 | 
[V:2] e4d4 | 
[V:3] z8 | 
[V:4] z8 | 
[V:1] C4D4 | 
[V:2] c2A4B2 | 
[V:3] z8 | 
[V:4] z8 | 
[V:1] E4D2C2 | 
[V:2] G2c2B2A2- | 
[V:3] z8 | 
[V:4] z8 | 
[V:1] B,4A,4 | 
[V:2] A2G2A4 | 
[V:3] z8 | 
[V:4] z8 | 
[V:1] z4A4- | 
[V:2] D4z4 | 
[V:3] z8 | 
[V:4] z8 | 
[V:1] A4A4 | 
[V:2] d4c4- | 
[V:3] z8 | 
[V:4] z8 | 
[V:1] G8 | 
[V:2] c4B4 | 
[V:3] z8 | 
[V:4] z8 | 
[V:1] F4E4 | 
[V:2] A4G2c2- | 
[V:3] z8 | 
[V:4] z8 | 
[V:1] C2D4F2 | 
[V:2] c2B2d4 | 
[V:3] z8 | 
[V:4] z8 | 
[V:1] E2D2G2F2 | 
[V:2] c2B4A2- | 
[V:3] z8 | 
[V:4] z8 | 
[V:1] A4G2E2- | 
[V:2] A2F2E4 | 
[V:3] z8 | 
[V:4] z8 | 
[V:1] E2F2E2G2 | 
[V:2] A4G4 | 
[V:3] z8 | 
[V:4] z8 | 
[V:1] F2D4B,2 | 
[V:2] D4F2G2 | 
[V:3] z8 | 
[V:4] z8 | 
[V:1] C2D4^C2 | 
[V:2] A2D2E4 | 
[V:3] z8 | 
[V:4] z8 | 
[V:1] D8 | 
[V:2] z8 | 
[V:3] D8- | 
[V:4] z8 | 
[V:1] z8 | 
[V:2] A8 | 
[V:3] D8 | 
[V:4] z8 | 
[V:1] D8- | 
[V:2] B6c2 | 
[V:3] ^F4G4 | 
[V:4] B,,8- | 
[V:1] D8 | 
[V:2] d4d4 | 
[V:3] B8 | 
[V:4] B,,8 | 
[V:1] F6G2 | 
[V:2] d8 | 
[V:3] A6G2 | 
[V:4] D,8- | 
[V:1] A6B2 | 
[V:2] f4f4 | 
[V:3] F4D4 | 
[V:4] D,8 | 
[V:1] c8 | 
[V:2] e4e4 | 
[V:3] E8 | 
[V:4] C,8 | 
[V:1] F8 | 
[V:2] d4d4- | 
[V:3] z8 | 
[V:4] D,8 | 
[V:1] z4F4 | 
[V:2] d4B4 | 
[V:3] D8 | 
[V:4] B,,8 | 
[V:1] E8 | 
[V:2] c4B4 | 
[V:3] E4G4- | 
[V:4] z4E,4 | 
[V:1] D4G4- | 
[V:2] B4d4- | 
[V:3] G4B4 | 
[V:4] G,8 | 
[V:1] G2E2F4 | 
[V:2] d8 | 
[V:3] A8 | 
[V:4] D,8 | 
[V:1] G4B4 | 
[V:2] B4d4- | 
[V:3] G8 | 
[V:4] E,4B,,4 | 
[V:1] A8 | 
[V:2] d2c2A4 | 
[V:3] F6G2 | 
[V:4] D,8- | 
[V:1] F4D4 | 
[V:2] d6B2 | 
[V:3] A4B4 | 
[V:4] D,8 | 
[V:1] E8 | 
[V:2] c8 | 
[V:3] A8 | 
[V:4] C,4A,,4 | 
[V:1] D8 | 
[V:2] z4d4 | 
[V:3] G4F4 | 
[V:4] B,,4D,4- | 
[V:1] G8 | 
[V:2] e4e4 | 
[V:3] E8 | 
[V:4] D,4C,4 | 
[V:1] F6G2 | 
[V:2] A4A4 | 
[V:3] D8- | 
[V:4] D,8- | 
[V:1] A4B4 | 
[V:2] d8 | 
[V:3] D8 | 
[V:4] D,4B,,4 | 
[V:1] c8 | 
[V:2] e8 | 
[V:3] z8 | 
[V:4] z4E,4 | 
[V:1] B6G2 | 
[V:2] d4B4- | 
[V:3] d8- | 
[V:4] G,8 | 
[V:1] G4z4 | 
[V:2] B4A4 | 
[V:3] d8 | 
[V:4] G,4D,4- | 
[V:1] F4G4 | 
[V:2] d4z4 | 
[V:3] B8 | 
[V:4] D,4E,4 | 
[V:1] B6A2 | 
[V:2] d4f4 | 
[V:3] d8 | 
[V:4] B,,4D,4- | 
[V:1] A4F4 | 
[V:2] f4d4 | 
[V:3] A4B4 | 
[V:4] D,8 | 
[V:1] E4A4 | 
[V:2] e4c4 | 
[V:3] c8 | 
[V:4] C,4A,,4 | 
[V:1] G2G4F2 | 
[V:2] d8 | 
[V:3] B8 | 
[V:4] B,,4D,4- | 
[V:1] A2GFE4 | 
[V:2] d4e4 | 
[V:3] A8 | 
[V:4] D,4C,4 | 
[V:1] D4A4- | 
[V:2] f8 | 
[V:3] z4A4 | 
[V:4] D,8- | 
[V:1] A4F4 | 
[V:2] z4d4 | 
[V:3] A8 | 
[V:4] D,8 | 
[V:1] G8 | 
[V:2] d4d4 | 
[V:3] B8 | 
[V:4] B,,8 | 
[V:1] A8 | 
[V:2] e8 | 
[V:3] c8 | 
[V:4] A,,8 | 
[V:1] B4d4- | 
[V:2] f8- | 
[V:3] z4d4 | 
[V:4] D,8 | 
[V:1] d2c2A4- | 
[V:2] f8 | 
[V:3] d8 | 
[V:4] z4D,4 | 
[V:1] A4F4 | 
[V:2] d8 | 
[V:3] B8 | 
[V:4] D,8 | 
[V:1] G4A4 | 
[V:2] z8 | 
[V:3] c8 | 
[V:4] E,4F,4 | 
[V:1] D8 | 
[V:2] z8 | 
[V:3] B4G4- | 
[V:4] G,8- | 
[V:1] d8 | 
[V:2] d4f4 | 
[V:3] G4B4 | 
[V:4] G,4D,4 | 
[V:1] c8 | 
[V:2] e4c4 | 
[V:3] A8 | 
[V:4] E,4F,4 | 
[V:1] B8 | 
[V:2] e4d4- | 
[V:3] z4G4 | 
[V:4] G,8 | 
[V:1] A4G4 | 
[V:2] d4B4 | 
[V:3] d8- | 
[V:4] D,4G,4- | 
[V:1] B4A4 | 
[V:2] G4d4 | 
[V:3] d4f4 | 
[V:4] G,4D,4 | 
[V:1] z4G4 | 
[V:2] B4c4 | 
[V:3] e8 | 
[V:4] E,4C,4 | 
[V:1] F8 | 
[V:2] A8 | 
[V:3] d8 | 
[V:4] D,8 | 
[V:1] E8 | 
[V:2] G4A4 | 
[V:3] c4A4- | 
[V:4] E,4C,4 | 
[V:1] D8 | 
[V:2] B8 | 
[V:3] A4^G4 | 
[V:4] B,,8 | 
[V:1] z4A4- | 
[V:2] c8- | 
[V:3] A8 | 
[V:4] A,,8 | 
[V:1] A4c3B | 
[V:2] c4A4 | 
[V:3] z8 | 
[V:4] z8 | 
[V:1] A2A4^G2 | 
[V:2] c2d2B4 | 
[V:3] z8 | 
[V:4] z8 | 
[V:1] A4G2E2- | 
[V:2] A4z4 | 
[V:3] z8 | 
[V:4] z8 | 
[V:1] E2F2E2C2- | 
[V:2] A4G2A2 | 
[V:3] z8 | 
[V:4] z8 | 
[V:1] C2E2D4 | 
[V:2] c2c4B2 | 
[V:3] z8 | 
[V:4] z8 | 
[V:1] C4F4 | 
[V:2] c4d4 | 
[V:3] z8 | 
[V:4] z8 | 
[V:1] G2A4F2 | 
[V:2] B2A2d4 | 
[V:3] z8 | 
[V:4] z8 | 
[V:1] E4z4 | 
[V:2] c2d2e4 | 
[V:3] A8- | 
[V:4] z8 | 
[V:1] z8 | 
[V:2] f2e4c2 | 
[V:3] A8 | 
[V:4] z8 | 
[V:1] z8 | 
[V:2] d2B2c4 | 
[V:3] B4A4 | 
[V:4] z8 | 
[V:1] z8 | 
[V:2] d4A4 | 
[V:3] D4C2D2- | 
[V:4] z8 | 
[V:1] z8 | 
[V:2] B2A4F2 | 
[V:3] D2A,2D2E2 | 
[V:4] z8 | 
[V:1] z8 | 
[V:2] F4z2A2 | 
[V:3] C4F4 | 
[V:4] z8 | 
[V:1] z8 | 
[V:2] B2c4d2 | 
[V:3] G2A4B2 | 
[V:4] z8 | 
[V:1] z8 | 
[V:2] e4c2B2 | 
[V:3] G2A4D2- | 
[V:4] z8 | 
[V:1] z8 | 
[V:2] A2d4^c2 | 
[V:3] D2F2E4 | 
[V:4] z8 | 
[V:1] A8 | 
[V:2] d6e2 | 
[V:3] D8 | 
[V:4] z4D,4 | 
[V:1] _B4A4- | 
[V:2] f8 | 
[V:3] z4d4 | 
[V:4] D,8- | 
[V:1] A4F4 | 
[V:2] z4d4 | 
[V:3] d8 | 
[V:4] D,8 | 
[V:1] G8 | 
[V:2] B4G4 | 
[V:3] G4B4 | 
[V:4] E,8 | 
[V:1] A8 | 
[V:2] c8 | 
[V:3] A8 | 
[V:4] F,8 | 
[V:1] B8 | 
[V:2] z4d4 | 
[V:3] G8 | 
[V:4] G,8- | 
[V:1] G4F4 | 
[V:2] B4A4 | 
[V:3] d8 | 
[V:4] G,4D,4 | 
[V:1] G6F2 | 
[V:2] G4A4 | 
[V:3] c8 | 
[V:4] E,4F,4 | 
[V:1] D8 | 
[V:2] B4A4 | 
[V:3] B4d4- | 
[V:4] G,4D,4 | 
[V:1] z4G4 | 
[V:2] G2B4G2 | 
[V:3] d4e4 | 
[V:4] G,8 | 
[V:1] F4E4- | 
[V:2] A4G4 | 
[V:3] d4B4 | 
[V:4] D,4E,4 | 
[V:1] E4A4- | 
[V:2] z4e4 | 
[V:3] c8 | 
[V:4] C,8 | 
[V:1] A8 | 
[V:2] d6c2 | 
[V:3] A8 | 
[V:4] D,8 | 
[V:1] E4C4 | 
[V:2] B4G4 | 
[V:3] G4E4 | 
[V:4] E,8 | 
[V:1] D8 | 
[V:2] z4B4 | 
[V:3] D8 | 
[V:4] B,,4G,,4 | 
[V:1] z4E4- | 
[V:2] c6d2 | 
[V:3] A4c4- | 
[V:4] A,,8 | 
[V:1] E4C4 | 
[V:2] e8 | 
[V:3] c4A4 | 
[V:4] z4C,4 | 
[V:1] E6D2 | 
[V:2] c8 | 
[V:3] G8 | 
[V:4] C,8 | 
[V:1] F4F4 | 
[V:2] A4B4 | 
[V:3] F8 | 
[V:4] D,8 | 
[V:1] E4E4 | 
[V:2] c8 | 
[V:3] G8 | 
[V:4] C,8 | 
[V:1] D8 | 
[V:2] z8 | 
[V:3] B4A4- | 
[V:4] D,8 | 
[V:1] E4E4 | 
[V:2] c8 | 
[V:3] A4G4 | 
[V:4] C,8 | 
[V:1] F4F4 | 
[V:2] A8 | 
[V:3] F8 | 
[V:4] D,8 | 
[V:1] G6A2 | 
[V:2] G4G4- | 
[V:3] E8 | 
[V:4] E,8 | 
[V:1] B8 | 
[V:2] G4B4 | 
[V:3] D8 | 
[V:4] B,,4G,,4 | 
[V:1] z4E4- | 
[V:2] A8 | 
[V:3] C8 | 
[V:4] A,,8 | 
[V:1] E4C4- | 
[V:2] G8 | 
[V:3] E6F2 | 
[V:4] z4C,4 | 
[V:1] C4E4 | 
[V:2] c8 | 
[V:3] G4A4 | 
[V:4] C,8 | 
[V:1] D4F4 | 
[V:2] z4d4 | 
[V:3] B6AB | 
[V:4] D,8 | 
[V:1] E6D2 | 
[V:2] G4A4- | 
[V:3] c8 | 
[V:4] C,8 | 
[V:1] F8 | 
[V:2] A4B4 | 
[V:3] A4F4 | 
[V:4] D,8 | 
[V:1] z4E4 | 
[V:2] c8 | 
[V:3] G8 | 
[V:4] C,8 | 
[V:1] F8 | 
[V:2] A8 | 
[V:3] F8 | 
[V:4] D,8 | 
[V:1] G4E4 | 
[V:2] G8 | 
[V:3] E4G4- | 
[V:4] E,8 | 
[V:1] D4D4- | 
[V:2] B8 | 
[V:3] G4B4 | 
[V:4] B,,4G,,4 | 
[V:1] D2B,2^C4 | 
[V:2] z8 | 
[V:3] A8 | 
[V:4] A,,8 | 
[V:1] D8 | 
[V:2] B8 | 
[V:3] D8 | 
[V:4] B,,8 | 
[V:1] z8 | 
[V:2] c4A4 | 
[V:3] E4F4 | 
[V:4] A,,8 | 
[V:1] G6F2 | 
[V:2] B8 | 
[V:3] E4G4- | 
[V:4] G,,8 | 
[V:1] D4^F4- | 
[V:2] d4c4 | 
[V:3] G4A4 | 
[V:4] B,,4A,,4 | 
[V:1] F4G4 | 
[V:2] d4B4 | 
[V:3] D8 | 
[V:4] B,,4G,,4 | 
[V:1] E4^F4 | 
[V:2] c8 | 
[V:3] A8 | 
[V:4] A,,8 | 
[V:1] G6A2 | 
[V:2] d8 | 
[V:3] B6c2 | 
[V:4] G,,8- | 
[V:1] B6A2- | 
[V:2] G4D4 | 
[V:3] d6c2 | 
[V:4] G,,8 | 
[V:1] A2G2A4 | 
[V:2] d4e2c2- | 
[V:3] B4A4- | 
[V:4] z8 | 
[V:1] F2E4G2 | 
[V:2] c2A2B4 | 
[V:3] A4G4 | 
[V:4] z8 | 
[V:1] F2D3CD2 | 
[V:2] A4A4- | 
[V:3] D4F4 | 
[V:4] z8 | 
[V:1] E2B,2^C4 | 
[V:2] A4G4 | 
[V:3] E8 | 
[V:4] z8 | 
[V:1] D8- | 
[V:2] A8- | 
[V:3] D8- | 
[V:4] D,8 | 
[V:1] D8 |]  
[V:2] A8 |]  
[V:3] D8 |]  
[V:4] D,8 |]  



